dist/img/svg/competency-2.svg

<svg width="81" height="81" viewBox="0 0 81 81" fill="none" xmlns="http://www.w3.org/2000/svg">
<path d="M6.25 63V21C6.25 18.9289 7.92893 17.25 10 17.25H23.5H70C72.0711 17.25 73.75 18.9289 73.75 21V63C73.75 65.0711 72.0711 66.75 70 66.75H23.5H10C7.92893 66.75 6.25 65.0711 6.25 63Z" stroke="#F14D34" stroke-width="2.5"/>
<path d="M30.5 24H37.5" stroke="#F14D34" stroke-width="2.5"/>
<path d="M11 24H18" stroke="#F14D34" stroke-width="2.5"/>
<path d="M11 35H18" stroke="#F14D34" stroke-width="2.5"/>
<path d="M11 41H18" stroke="#F14D34" stroke-width="2.5"/>
<path d="M11 47H18" stroke="#F14D34" stroke-width="2.5"/>
<path d="M11 53H15" stroke="#F14D34" stroke-width="2.5"/>
<path d="M41 24H48" stroke="#F14D34" stroke-width="2.5"/>
<path d="M52 24H59" stroke="#F14D34" stroke-width="2.5"/>
<path d="M36.852 48.168C38.56 48.168 39.974 47.552 40.898 46.418L39.442 45.074C38.784 45.844 37.958 46.236 36.978 46.236C35.144 46.236 33.842 44.948 33.842 43.1C33.842 41.252 35.144 39.964 36.978 39.964C37.958 39.964 38.784 40.356 39.442 41.112L40.898 39.768C39.974 38.648 38.56 38.032 36.866 38.032C33.814 38.032 31.546 40.146 31.546 43.1C31.546 46.054 33.814 48.168 36.852 48.168ZM51.1096 48L48.9116 44.85C50.1856 44.304 50.9276 43.226 50.9276 41.756C50.9276 39.558 49.2896 38.2 46.6716 38.2H42.4296V48H44.6976V45.27H46.6716H46.7836L48.6736 48H51.1096ZM48.6316 41.756C48.6316 42.82 47.9316 43.464 46.5456 43.464H44.6976V40.048H46.5456C47.9316 40.048 48.6316 40.678 48.6316 41.756ZM63.7705 48L63.7425 38.2H61.8805L58.2685 44.29L54.6005 38.2H52.7245V48H54.8525V42.246L57.7225 46.964H58.7445L61.6285 42.12L61.6425 48H63.7705Z" fill="#050C33"/>
</svg>

<svg width="81" height="81" fill="none" xmlns="http://www.w3.org/2000/svg"><path d="M6.25 63V21A3.75 3.75 0 0110 17.25h60A3.75 3.75 0 0173.75 21v42A3.75 3.75 0 0170 66.75H10A3.75 3.75 0 016.25 63zM30.5 24h7M11 24h7m-7 11h7m-7 6h7m-7 6h7m-7 6h4m26-29h7m4 0h7" stroke="#F14D34" stroke-width="2.5"/><path d="M36.852 48.168c1.708 0 3.122-.616 4.046-1.75l-1.456-1.344c-.658.77-1.484 1.162-2.464 1.162-1.834 0-3.136-1.288-3.136-3.136s1.302-3.136 3.136-3.136c.98 0 1.806.392 2.464 1.148l1.456-1.344c-.924-1.12-2.338-1.736-4.032-1.736-3.052 0-5.32 2.114-5.32 5.068 0 2.954 2.268 5.068 5.306 5.068zM51.11 48l-2.198-3.15c1.274-.546 2.016-1.624 2.016-3.094 0-2.198-1.638-3.556-4.256-3.556H42.43V48h2.268v-2.73h2.086l1.89 2.73h2.436zm-2.478-6.244c0 1.064-.7 1.708-2.086 1.708h-1.848v-3.416h1.848c1.386 0 2.086.63 2.086 1.708zM63.77 48l-.029-9.8H61.88l-3.612 6.09L54.6 38.2h-1.876V48h2.129v-5.754l2.87 4.718h1.022l2.884-4.844.014 5.88h2.127z" fill="#050C33"/></svg>
